dist/images/footer/instagram.svg

<svg width="18" height="18" viewBox="0 0 18 18" fill="none" xmlns="http://www.w3.org/2000/svg">
<path d="M12.375 0H5.625C2.51888 0 0 2.51888 0 5.625V12.375C0 15.4811 2.51888 18 5.625 18H12.375C15.4811 18 18 15.4811 18 12.375V5.625C18 2.51888 15.4811 0 12.375 0ZM16.3125 12.375C16.3125 14.5463 14.5463 16.3125 12.375 16.3125H5.625C3.45375 16.3125 1.6875 14.5463 1.6875 12.375V5.625C1.6875 3.45375 3.45375 1.6875 5.625 1.6875H12.375C14.5463 1.6875 16.3125 3.45375 16.3125 5.625V12.375Z" fill="white"/>
<path d="M9 4.5C6.51487 4.5 4.5 6.51487 4.5 9C4.5 11.4851 6.51487 13.5 9 13.5C11.4851 13.5 13.5 11.4851 13.5 9C13.5 6.51487 11.4851 4.5 9 4.5ZM9 11.8125C7.44975 11.8125 6.1875 10.5503 6.1875 9C6.1875 7.44863 7.44975 6.1875 9 6.1875C10.5503 6.1875 11.8125 7.44863 11.8125 9C11.8125 10.5503 10.5503 11.8125 9 11.8125Z" fill="white"/>
<path d="M13.8374 4.76175C14.1686 4.76175 14.437 4.49329 14.437 4.16213C14.437 3.83096 14.1686 3.5625 13.8374 3.5625C13.5063 3.5625 13.2378 3.83096 13.2378 4.16213C13.2378 4.49329 13.5063 4.76175 13.8374 4.76175Z" fill="white"/>
</svg>

<svg width="18" height="18" fill="none" xmlns="http://www.w3.org/2000/svg"><path d="M12.375 0h-6.75A5.626 5.626 0 000 5.625v6.75A5.626 5.626 0 005.625 18h6.75A5.626 5.626 0 0018 12.375v-6.75A5.626 5.626 0 0012.375 0zm3.938 12.375a3.942 3.942 0 01-3.938 3.938h-6.75a3.942 3.942 0 01-3.938-3.938v-6.75a3.942 3.942 0 013.938-3.938h6.75a3.942 3.942 0 013.938 3.938v6.75z" fill="#fff"/><path d="M9 4.5a4.5 4.5 0 100 9 4.5 4.5 0 000-9zm0 7.313A2.816 2.816 0 016.187 9 2.816 2.816 0 019 6.187 2.816 2.816 0 0111.813 9 2.816 2.816 0 019 11.813zm4.837-7.051a.6.6 0 100-1.2.6.6 0 000 1.2z" fill="#fff"/></svg>
